/* XPM */
static char *tiled_wallpaper[] = {
/* columns rows colors chars-per-pixel */
"60 60 2 1 ",
"  c #1E2326",
". c #272E33",
/* pixels */
"   ...                                             ...   ...",
"   ...                                             ...   ...",
"   ...                                             ...   ...",
"   ...   .......................................   ...   ...",
"   ...   .......................................   ...   ...",
"   ...   .......................................   ...   ...",
"   ...         ...         ...         ...         ...   ...",
"   ...         ...         ...         ...         ...   ...",
"   ...         ...         ...         ...         ...   ...",
"   .........   ...   ...   ...   ...   ...   .........   ...",
"   .........   ...   ...   ...   ...   ...   .........   ...",
"   .........   ...   ...   ...   ...   ...   .........   ...",
"   ...               ...   ...   ...               ...   ...",
"   ...               ...   ...   ...               ...   ...",
"   ...               ...   ...   ...               ...   ...",
"   ...   ...   .........   ...   .........   ...   ...   ...",
"   ...   ...   .........   ...   .........   ...   ...   ...",
"   ...   ...   .........   ...   .........   ...   ...   ...",
"         ...         ...   ...   ...         ...         ...",
"         ...         ...   ...   ...         ...         ...",
"         ...         ...   ...   ...         ...         ...",
"..................   ...   ...   ...   .....................",
"..................   ...   ...   ...   .....................",
"..................   ...   ...   ...   .....................",
"                     ...   ...   ...                        ",
"                     ...   ...   ...                        ",
"                     ...   ...   ...                        ",
"........................   ...   ...........................",
"........................   ...   ...........................",
"........................   ...   ...........................",
"                     ...   ...   ...                        ",
"                     ...   ...   ...                        ",
"                     ...   ...   ...                        ",
"..................   ...   ...   ...   .....................",
"..................   ...   ...   ...   .....................",
"..................   ...   ...   ...   .....................",
"         ...         ...   ...   ...         ...         ...",
"         ...         ...   ...   ...         ...         ...",
"         ...         ...   ...   ...         ...         ...",
"   ...   ...   .........   ...   .........   ...   ...   ...",
"   ...   ...   .........   ...   .........   ...   ...   ...",
"   ...   ...   .........   ...   .........   ...   ...   ...",
"   ...               ...   ...   ...               ...   ...",
"   ...               ...   ...   ...               ...   ...",
"   ...               ...   ...   ...               ...   ...",
"   .........   ...   ...   ...   ...   ...   .........   ...",
"   .........   ...   ...   ...   ...   ...   .........   ...",
"   .........   ...   ...   ...   ...   ...   .........   ...",
"   ...         ...         ...         ...         ...   ...",
"   ...         ...         ...         ...         ...   ...",
"   ...         ...         ...         ...         ...   ...",
"   ...   .......................................   ...   ...",
"   ...   .......................................   ...   ...",
"   ...   .......................................   ...   ...",
"   ...                                             ...   ...",
"   ...                                             ...   ...",
"   ...                                             ...   ...",
"   ...................................................   ...",
"   ...................................................   ...",
"   ...................................................   ..."
};
